X: 140
T:Smash the Windows. JC.140
M:6/8
L:1/8
Q:120
S:John Clare,Poet,Helpstone (1793-1864)
R:Jig
O:England
A:Northamptonshire
N:
Z:vmp.P. Headford
K:D
DED F2A|d2f ecA|G2B F2A|E2F GFE|!
DED "qu"F2A|d2f ecA|Ggf edc|"crots"d3d3:|!
|:a2ff2d|A2a agf|g2ee2c|A2g gfe|!
f2dg2e|a2f bag|fed edc|"crots"d3d3:|]
